X: 15704
T: Golden Keyboard, The
R: reel
M: 4/4
K: Edorian
BGEF GFGA|B2gB fBeA|BGEF GBAG|(3FED AD BDAF|
E^DEF GFGA|B2gB fBeB|d2dc dBAF|DFAF GEE2:|
Bee2 Beed|Beec dBAc|dAA2 fAA2|dfec dBAF|
E^DEF GFGA|B2gB fBeB|d2dc dBAF|DFAF GEE2:|

